img/icons/mail.svg

<svg width="25" height="24" viewBox="0 0 25 24" fill="none" xmlns="http://www.w3.org/2000/svg">
<path d="M20.7334 4H4.7334C3.6334 4 2.7434 4.9 2.7434 6L2.7334 18C2.7334 19.1 3.6334 20 4.7334 20H20.7334C21.8334 20 22.7334 19.1 22.7334 18V6C22.7334 4.9 21.8334 4 20.7334 4ZM20.7334 8L12.7334 13L4.7334 8V6L12.7334 11L20.7334 6V8Z" fill="white"/>
</svg>

<svg width="25" height="24" fill="none" xmlns="http://www.w3.org/2000/svg"><path d="M20.733 4h-16c-1.1 0-1.99.9-1.99 2l-.01 12c0 1.1.9 2 2 2h16c1.1 0 2-.9 2-2V6c0-1.1-.9-2-2-2zm0 4l-8 5-8-5V6l8 5 8-5v2z" fill="#fff"/></svg>
